X:520
T: MEIN HERZ IST SO TRAURIG
N: E1793A
O: Europa, Mitteleuropa, Deutschland, Geinsheim am Rhein
R: Gefangenen - Lied, Klage
M: 3/4
L: 1/8
K: F
F2 | F2A2A2 | A2G2
EF | G2B2B2 | BcA2z2 |
c2c2d2 | c3BA2 |
B2A2G2 | GAF2

@@@ Tune index: 5204
